X:451
T:Lasses Like Nae Brandy
R:Reel
B:The Athole Collection
M:C|
L:1/8
K:A
f|ef/g/ae fdec|B=ggB d2 d>f|ef/g/ae fdec|Aaac e2d:|
f|eAcA eAcA|B=ggB d2 d>f|eAcA aecA|Aaac e2 2>f|
eAcA eAcA|B=ggB d2 d>g|af=ge fdec|bBBc d2d||

